X: 18
T: Glen Of Aherlow, The
C: Sean Ryan
Z: Pipolidz
S: https://thesession.org/tunes/496#setting54080
R: reel
M: 4/4
L: 1/8
K: Edor
|:B2AF BFAF|E2EF EDBA|B2AF BFAF|DFAF FEEE|
BBAF BFAF|E2EF EDBA|BEEE DEFA|dBAF BEE2:|
|:eBB2 egfe|d2fd Adfd|eB BB egfe|dBAF BEE2|
eBBB egfe|d2fd Adfd|BAB^c dgfe|dBAF BEE2:|

%-------------------- TUNE SEPARATOR --------------------%

